svg/color/imagic.svg

<?xml version="1.0" encoding="UTF-8" ?>
<!DOCTYPE svg PUBLIC "-//W3C//DTD SVG 1.1//EN" "http://www.w3.org/Graphics/SVG/1.1/DTD/svg11.dtd">
<svg width="250pt" height="250pt" viewBox="0 0 250 250" version="1.1" xmlns="http://www.w3.org/2000/svg">
<g id="#ffffffff">
<path fill="#ffffff" opacity="1.00" d=" M 0.00 0.00 L 121.38 0.00 C 91.48 0.84 62.11 12.87 40.17 33.19 C 16.30 55.01 1.64 86.33 0.00 118.62 L 0.00 0.00 Z" />
<path fill="#ffffff" opacity="1.00" d=" M 131.11 0.00 L 250.00 0.00 L 250.00 121.56 C 249.46 112.53 248.46 103.49 246.20 94.71 C 239.48 67.27 223.02 42.43 200.51 25.39 C 180.63 10.12 156.05 1.54 131.11 0.00 Z" />
<path fill="#ffffff" opacity="1.00" d=" M 84.86 44.37 C 120.61 106.43 156.44 168.44 192.22 230.49 C 196.16 227.73 200.18 225.07 203.89 222.01 C 188.75 195.90 173.73 169.72 158.58 143.61 C 164.44 143.61 170.31 143.63 176.17 143.60 C 189.28 166.16 202.29 188.78 215.34 211.37 C 221.63 204.95 227.00 197.70 231.77 190.10 C 209.51 151.72 187.45 113.22 165.15 74.85 C 157.55 88.35 149.69 101.70 142.02 115.17 C 139.12 110.06 136.20 104.97 133.23 99.90 C 143.86 81.39 154.59 62.92 165.17 44.38 C 190.19 87.58 215.14 130.81 240.06 174.06 C 245.87 160.17 249.23 145.29 250.00 130.26 L 250.00 250.00 L 129.26 250.00 C 146.41 249.41 163.38 245.29 178.88 237.91 C 147.63 183.51 116.12 129.26 84.88 74.85 C 62.62 113.23 40.54 151.71 18.27 190.09 C 23.05 197.69 28.39 204.97 34.71 211.37 C 47.76 188.78 60.77 166.16 73.88 143.60 C 79.75 143.63 85.62 143.61 91.48 143.61 C 76.31 169.70 61.31 195.89 46.16 222.00 C 67.09 239.02 93.56 249.04 120.54 250.00 L 0.00 250.00 L 0.00 127.32 C 0.38 143.35 3.74 159.28 9.97 174.06 C 34.92 130.82 59.87 87.59 84.86 44.37 Z" />
</g>
<g id="#050c43ff">
<path fill="#050c43" opacity="1.00" d=" M 121.38 0.00 L 131.11 0.00 C 156.05 1.54 180.63 10.12 200.51 25.39 C 223.02 42.43 239.48 67.27 246.20 94.71 C 248.46 103.49 249.46 112.53 250.00 121.56 L 250.00 130.26 C 249.23 145.29 245.87 160.17 240.06 174.06 C 215.14 130.81 190.19 87.58 165.17 44.38 C 154.59 62.92 143.86 81.39 133.23 99.90 C 136.20 104.97 139.12 110.06 142.02 115.17 C 149.69 101.70 157.55 88.35 165.15 74.85 C 187.45 113.22 209.51 151.72 231.77 190.10 C 227.00 197.70 221.63 204.95 215.34 211.37 C 202.29 188.78 189.28 166.16 176.17 143.60 C 170.31 143.63 164.44 143.61 158.58 143.61 C 173.73 169.72 188.75 195.90 203.89 222.01 C 200.18 225.07 196.16 227.73 192.22 230.49 C 156.44 168.44 120.61 106.43 84.86 44.37 C 59.87 87.59 34.92 130.82 9.97 174.06 C 3.74 159.28 0.38 143.35 0.00 127.32 L 0.00 118.62 C 1.64 86.33 16.30 55.01 40.17 33.19 C 62.11 12.87 91.48 0.84 121.38 0.00 Z" />
<path fill="#050c43" opacity="1.00" d=" M 18.27 190.09 C 40.54 151.71 62.62 113.23 84.88 74.85 C 116.12 129.26 147.63 183.51 178.88 237.91 C 163.38 245.29 146.41 249.41 129.26 250.00 L 120.54 250.00 C 93.56 249.04 67.09 239.02 46.16 222.00 C 61.31 195.89 76.31 169.70 91.48 143.61 C 85.62 143.61 79.75 143.63 73.88 143.60 C 60.77 166.16 47.76 188.78 34.71 211.37 C 28.39 204.97 23.05 197.69 18.27 190.09 Z" />
</g>
</svg>

<?xml version="1.0" encoding="utf-8"?>
<!-- Generator: Adobe Illustrator 26.0.3, SVG Export Plug-In . SVG Version: 6.00 Build 0)  -->
<svg version="1.1" id="Layer_1" xmlns="http://www.w3.org/2000/svg" xmlns:xlink="http://www.w3.org/1999/xlink" x="0px" y="0px"
	 viewBox="0 0 250 250" style="enable-background:new 0 0 250 250;" xml:space="preserve">
<style type="text/css">
	.st0{fill:#050C43;}
</style>
<g id="_x23_050c43ff">
	<path class="st0" d="M121.4,0h9.7c24.9,1.5,49.5,10.1,69.4,25.4c22.5,17,39,41.9,45.7,69.3c2.3,8.8,3.3,17.8,3.8,26.8v8.7
		c-0.8,15-4.1,29.9-9.9,43.8c-24.9-43.2-49.9-86.5-74.9-129.7c-10.6,18.5-21.3,37-31.9,55.5c3,5.1,5.9,10.2,8.8,15.3
		c7.7-13.5,15.5-26.8,23.1-40.3c22.3,38.4,44.4,76.9,66.6,115.3c-4.8,7.6-10.1,14.8-16.4,21.3c-13.1-22.6-26.1-45.2-39.2-67.8
		c-5.9,0-11.7,0-17.6,0c15.1,26.1,30.2,52.3,45.3,78.4c-3.7,3.1-7.7,5.7-11.7,8.5c-35.8-62.1-71.6-124.1-107.4-186.1
		c-25,43.2-49.9,86.5-74.9,129.7c-6.2-14.8-9.6-30.7-10-46.7v-8.7C1.6,86.3,16.3,55,40.2,33.2C62.1,12.9,91.5,0.8,121.4,0z"/>
	<path class="st0" d="M18.3,190.1c22.3-38.4,44.3-76.9,66.6-115.2c31.2,54.4,62.8,108.7,94,163.1c-15.5,7.4-32.5,11.5-49.6,12.1
		h-8.7c-27-1-53.5-11-74.4-28c15.2-26.1,30.1-52.3,45.3-78.4c-5.9,0-11.7,0-17.6,0c-13.1,22.6-26.1,45.2-39.2,67.8
		C28.4,205,23,197.7,18.3,190.1z"/>
</g>
</svg>
